www/assets/icons/filter_frames.svg

<svg xmlns="http://www.w3.org/2000/svg" width="24" height="24" viewBox="0 0 24 24" fill='currentColor'><path d="M20 5h-4l-4-4-4 4H4c-1.1 0-2 .9-2 2v14c0 1.1.9 2 2 2h16c1.1 0 2-.9 2-2V7c0-1.1-.9-2-2-2m0 16H4V7h4.52l3.52-3.5L15.52 7H20zM18 9H6v10h12"/></svg>

<svg width="24" height="24" viewBox="0 0 24 24" xmlns="http://www.w3.org/2000/svg" fill='currentColor'><path d="M20 5H16L12 1L8 5H4C2.9 5 2 5.9 2 7V21C2 22.1 2.9 23 4 23H20C21.1 23 22 22.1 22 21V7C22 5.9 21.1 5 20 5ZM20 21H4V7H8.52L12.04 3.5L15.52 7H20V21ZM18 9H6V19H18"/></svg>
